X:4
T:Jockey To The Fair. Le4.004
B:L.Leadley MS#4 c1850
Z:Village Music Project, 2016 Steve Mansfield
M:6/8
L:1/8
Q:3/8=90
N:Beaming and ties/slurs as written
K:G
D | G2A B2c | d2g d2c | B/d/ "_sic"(G G F2)G | A/B/c B A2d |
dc d ef g | fa f e2f | (fd) d (cd) ^c | d3- d2 :|
|: d | af d af d | c2c B2c | (dg) d dg d | c2c B2B |
e2f g2f | e2f B2e | e ^d e B2A | G2F E2F |G2G G2B |
d3 g3 | dBG A2B | E2F G2A |B2g BcA | G3 G2 :|

